X:1625
T: Polska efter Per Johan Arnström, variant
R:Polska
S:Efter Per Johan Arnström
Z:Anton Teljebäck 2009-09-02
O:Bäsksjö, Vilhelmina, Västerbotten
M:3/4
L:1/8
K:Dm
|: a>a (3gfg a>a | (3a=ba (3gfg a>e | f>a (3gag f>f | e>e d<d ^c>A |
 A>a g>g a>a | (3a=ba (3gfg a>e | f>a (3gag f>e | ^c2 d4 :|
|: A>e f>e ^c>d | (3efe (3ded ^c>A | A>e f>e ^c>d | e>e (3geg a2 |
 e>g f>e ^c>d | (3efe (3ded ^c>A | A>e f>e ^c>d | e<^c d4 :| 
 
 (:musicend:)
 (:music:)
